X:1
T:Dr. Stewart's Reel
T:Dr. Stewart's Reel
T:William Christie (1778-1849)
C:William Christie (1778-1849)
L:1/8
M:2/2
K:C
V:1 treble 
V:1
 d | Tc>A A/A/A G>E{E} TD2 | (CEG).E cEGE | TA>E E/E/E G>E{E} D2 | (C<E) Tc>B{B} A2 A :| d | %6
 c>e e/e/e (Tgd)de | Tc>e e/e/e (Tgd)ea | Tg>e e/e/e (TGd)de | (cea).g e2 e>d | %10
 Tc>e e/e/e (Tgd)de | ceea gded | cAcG Ec CE | (D<E) Tc>B{B} A2 A || %14

